X: 229
T: Ships Are Sailing
M: 4/4
L: 1/8
R: reel
K: Edor
"Em"Beed BcdB | "D"A2 FD AD FD | "Em"E^DEF GFGA | "Bm"Beef  gfed |
"Em"Beed BcdB |"D" AD (3FED AD FD | "Em"E^DEF GFGA | "Bm"Bee^d "Em"e4 :|
|:"Em"gfga bgeg | "D"fefg afdf | "Em"gfga bgeg | "D" afdf "Em"e2 de |
"Em"gfga bgeg | "D"fefg afdf | "G"g2bg "D"f2af | "Em"edef "Bm"gfed :|
